src/lib/packages/icons/src/assets/line/step-forward.svg

<svg width="24" height="24" viewBox="0 0 24 24" fill="none" xmlns="http://www.w3.org/2000/svg">
<path d="M18 3.25C17.586 3.25 17.25 3.586 17.25 4V10.2661C17.044 9.92511 16.794 9.60998 16.472 9.35498L9.65698 3.9729C8.64598 3.1739 7.30094 3.02889 6.14294 3.58789C4.97594 4.15389 4.25 5.31492 4.25 6.61792V17.3831C4.25 18.6861 4.97594 19.8471 6.14294 20.4131C6.60894 20.6391 7.10502 20.749 7.59802 20.749C8.32902 20.749 9.05298 20.5041 9.65698 20.0271L16.472 14.644C16.795 14.389 17.045 14.0739 17.25 13.7329V20C17.25 20.414 17.586 20.75 18 20.75C18.414 20.75 18.75 20.414 18.75 20V4C18.75 3.586 18.414 3.25 18 3.25ZM15.542 13.467L8.72705 18.8501C8.16405 19.2951 7.442 19.373 6.797 19.062C6.142 18.745 5.75 18.1161 5.75 17.3821V6.61694C5.75 5.88294 6.142 5.25401 6.797 4.93701C7.058 4.81101 7.32995 4.74902 7.60095 4.74902C7.99895 4.74902 8.39105 4.88393 8.72705 5.14893L15.542 10.531C15.992 10.886 16.25 11.422 16.25 11.999C16.25 12.577 15.992 13.112 15.542 13.467Z" fill="currentColor"/>
</svg>

<svg xmlns="http://www.w3.org/2000/svg" width="24" height="24" fill="none"><path fill="currentColor" d="M18 3.25a.75.75 0 0 0-.75.75v6.266a3.348 3.348 0 0 0-.778-.911L9.657 3.973a3.306 3.306 0 0 0-3.514-.385 3.341 3.341 0 0 0-1.893 3.03v10.765c0 1.303.726 2.464 1.893 3.03.466.226.962.336 1.455.336.731 0 1.455-.245 2.059-.722l6.815-5.383c.323-.255.573-.57.778-.911V20a.75.75 0 0 0 1.5 0V4a.75.75 0 0 0-.75-.75Zm-2.458 10.217L8.727 18.85a1.795 1.795 0 0 1-1.93.212 1.828 1.828 0 0 1-1.047-1.68V6.617c0-.734.392-1.363 1.047-1.68.261-.126.533-.188.804-.188.398 0 .79.135 1.126.4l6.815 5.382c.45.355.708.891.708 1.468 0 .578-.258 1.113-.708 1.468Z"/></svg>
